Dominus_Funeral/22/apps/wesnoth.svg

<svg xmlns="http://www.w3.org/2000/svg" width="24" height="24" viewBox="0 0 6.35 6.35"><defs><linearGradient id="b"><stop offset="0" stop-color="#040000"/><stop offset="1" stop-color="#000005" stop-opacity="0"/></linearGradient><linearGradient id="a"><stop offset="0" stop-color="#1a1a1a"/><stop offset="1" stop-color="#1a1a1a" stop-opacity="0"/></linearGradient></defs><path d="M5.63.2a.08.08 0 0 0-.05 0c-.04.13-.44.53-.67.78L4.63.71c-.4-.36-.42.26-.41.27.07-.15.24-.2.52.1l-.3.3c.1.04.2.06.29.06l.2-.17c.3.3.24.33.1.53.2.05.57-.16.24-.43l-.22-.24c.25-.24.57-.6.76-.68.06-.1-.09-.26-.18-.26zM.73.2c-.1 0-.25.16-.2.26.2.1.52.44.77.68l-.23.24c-.32.27.05.48.24.43-.13-.2-.2-.23.12-.53l.2.17c.09 0 .19-.02.28-.06l-.3-.29c.28-.3.45-.25.52-.1 0-.02 0-.64-.41-.27L1.44 1C1.21.74.81.34.76.23A.08.08 0 0 0 .72.21zM3.2 1c-.56.36-1.17.48-1.75.57-.1 2.02.17 3.32 1.75 4.6 1.58-1.28 1.84-2.58 1.74-4.6A4.43 4.43 0 0 1 3.21.99zM1.73 4.52c-.3.33-.71.72-.73 1.1.32-.16.53-.49.85-.83zm2.93 0l-.11.27c.31.34.53.67.85.82-.02-.37-.43-.75-.74-1.09z" fill="#1a1a1a" stroke-width=".75"/></svg>

<?xml version="1.0" encoding="UTF-8" standalone="no"?>
<svg
   xmlns:dc="http://purl.org/dc/elements/1.1/"
   xmlns:cc="http://creativecommons.org/ns#"
   xmlns:rdf="http://www.w3.org/1999/02/22-rdf-syntax-ns#"
   xmlns:svg="http://www.w3.org/2000/svg"
   xmlns="http://www.w3.org/2000/svg"
   xmlns:sodipodi="http://sodipodi.sourceforge.net/DTD/sodipodi-0.dtd"
   xmlns:inkscape="http://www.inkscape.org/namespaces/inkscape"
   width="24"
   height="24"
   viewBox="0 0 6.35 6.35"
   version="1.1"
   id="svg16"
   sodipodi:docname="wesnoth.svg"
   inkscape:version="0.92.4 (5da689c313, 2019-01-14)">
  <metadata
     id="metadata20">
    <rdf:RDF>
      <cc:Work
         rdf:about="">
        <dc:format>image/svg+xml</dc:format>
        <dc:type
           rdf:resource="http://purl.org/dc/dcmitype/StillImage" />
        <dc:title></dc:title>
      </cc:Work>
    </rdf:RDF>
  </metadata>
  <sodipodi:namedview
     pagecolor="#ffffff"
     bordercolor="#666666"
     borderopacity="1"
     objecttolerance="10"
     gridtolerance="10"
     guidetolerance="10"
     inkscape:pageopacity="0"
     inkscape:pageshadow="2"
     inkscape:window-width="1138"
     inkscape:window-height="480"
     id="namedview18"
     showgrid="false"
     inkscape:zoom="9.8333333"
     inkscape:cx="1.0677966"
     inkscape:cy="12"
     inkscape:window-x="0"
     inkscape:window-y="25"
     inkscape:window-maximized="0"
     inkscape:current-layer="svg16" />
  <defs
     id="defs12">
    <linearGradient
       id="b">
      <stop
         offset="0"
         stop-color="#040000"
         id="stop2" />
      <stop
         offset="1"
         stop-color="#000005"
         stop-opacity="0"
         id="stop4" />
    </linearGradient>
    <linearGradient
       id="a">
      <stop
         offset="0"
         stop-color="#1a1a1a"
         id="stop7" />
      <stop
         offset="1"
         stop-color="#1a1a1a"
         stop-opacity="0"
         id="stop9" />
    </linearGradient>
  </defs>
  <path
     d="m 5.63,0.2 a 0.08,0.08 0 0 0 -0.05,0 C 5.54,0.33 5.14,0.73 4.91,0.98 L 4.63,0.71 C 4.23,0.35 4.21,0.97 4.22,0.98 4.29,0.83 4.46,0.78 4.74,1.08 l -0.3,0.3 c 0.1,0.04 0.2,0.06 0.29,0.06 L 4.93,1.27 C 5.23,1.57 5.17,1.6 5.03,1.8 5.23,1.85 5.6,1.64 5.27,1.37 L 5.05,1.13 C 5.3,0.89 5.62,0.53 5.81,0.45 5.87,0.35 5.72,0.19 5.63,0.19 Z m -4.9,0 c -0.1,0 -0.25,0.16 -0.2,0.26 0.2,0.1 0.52,0.44 0.77,0.68 L 1.07,1.38 C 0.75,1.65 1.12,1.86 1.31,1.81 1.18,1.61 1.11,1.58 1.43,1.28 l 0.2,0.17 c 0.09,0 0.19,-0.02 0.28,-0.06 L 1.61,1.1 C 1.89,0.8 2.06,0.85 2.13,1 2.13,0.98 2.13,0.36 1.72,0.73 L 1.44,1 C 1.21,0.74 0.81,0.34 0.76,0.23 A 0.08,0.08 0 0 0 0.72,0.21 Z M 3.2,1 C 2.64,1.36 2.03,1.48 1.45,1.57 1.35,3.59 1.62,4.89 3.2,6.17 4.78,4.89 5.04,3.59 4.94,1.57 A 4.43,4.43 0 0 1 3.21,0.99 Z M 1.73,4.52 C 1.43,4.85 1.02,5.24 1,5.62 1.32,5.46 1.53,5.13 1.85,4.79 Z m 2.93,0 -0.11,0.27 C 4.86,5.13 5.08,5.46 5.4,5.61 5.38,5.24 4.97,4.86 4.66,4.52 Z"
     id="path14"
     inkscape:connector-curvature="0"
     style="fill:#1a1a1a;stroke-width:0.75" />
</svg>
